Numix/22/emotes/face-sleeping.svg

<?xml version="1.0" encoding="UTF-8" standalone="no"?>
<svg
   xmlns:dc="http://purl.org/dc/elements/1.1/"
   xmlns:cc="http://creativecommons.org/ns#"
   xmlns:rdf="http://www.w3.org/1999/02/22-rdf-syntax-ns#"
   xmlns:svg="http://www.w3.org/2000/svg"
   xmlns="http://www.w3.org/2000/svg"
   xmlns:xlink="http://www.w3.org/1999/xlink"
   xmlns:sodipodi="http://sodipodi.sourceforge.net/DTD/sodipodi-0.dtd"
   xmlns:inkscape="http://www.inkscape.org/namespaces/inkscape"
   width="22px"
   height="22px"
   viewBox="0 0 18 18"
   version="1.1"
   id="svg1568"
   inkscape:version="0.91 r"
   sodipodi:docname="face-sleeping.svg">
  <metadata
     id="metadata1603">
    <rdf:RDF>
      <cc:Work
         rdf:about="">
        <dc:format>image/svg+xml</dc:format>
        <dc:type
           rdf:resource="http://purl.org/dc/dcmitype/StillImage" />
      </cc:Work>
    </rdf:RDF>
  </metadata>
  <sodipodi:namedview
     pagecolor="#ffffff"
     bordercolor="#666666"
     borderopacity="1"
     objecttolerance="10"
     gridtolerance="10"
     guidetolerance="10"
     inkscape:pageopacity="0"
     inkscape:pageshadow="2"
     inkscape:window-width="640"
     inkscape:window-height="480"
     id="namedview1601" />
  <defs
     id="defs1570">
    <g
       id="g1572">
      <symbol
         overflow="visible"
         id="glyph0-0">
        <path
           style="stroke:none;"
           d="M 0.203125 0 L 0.203125 -3 L 1.796875 -3 L 1.796875 0 Z M 1.59375 -0.203125 L 1.59375 -2.796875 L 0.40625 -2.796875 L 0.40625 -0.203125 Z M 1.59375 -0.203125 "
           id="path1575" />
      </symbol>
      <symbol
         overflow="visible"
         id="glyph0-1">
        <path
           style="stroke:none;"
           d="M 1.78125 -2.125 C 1.664062 -1.957031 1.554688 -1.796875 1.453125 -1.640625 C 1.359375 -1.484375 1.269531 -1.332031 1.1875 -1.1875 C 1.113281 -1.050781 1.039062 -0.914062 0.96875 -0.78125 C 0.894531 -0.65625 0.820312 -0.53125 0.75 -0.40625 L 1.8125 -0.40625 L 1.8125 0 L 0.1875 0 L 0.1875 -0.28125 C 0.238281 -0.394531 0.296875 -0.515625 0.359375 -0.640625 C 0.429688 -0.773438 0.507812 -0.910156 0.59375 -1.046875 C 0.675781 -1.191406 0.765625 -1.347656 0.859375 -1.515625 C 0.960938 -1.679688 1.070312 -1.863281 1.1875 -2.0625 L 0.234375 -2.0625 L 0.234375 -2.46875 L 1.78125 -2.46875 Z M 1.78125 -2.125 "
           id="path1578" />
      </symbol>
      <symbol
         overflow="visible"
         id="glyph1-0">
        <path
           style="stroke:none;"
           d="M 0.25 0 L 0.25 -3.75 L 2.25 -3.75 L 2.25 0 Z M 2 -0.25 L 2 -3.5 L 0.5 -3.5 L 0.5 -0.25 Z M 2 -0.25 "
           id="path1581" />
      </symbol>
      <symbol
         overflow="visible"
         id="glyph1-1">
        <path
           style="stroke:none;"
           d="M 2.21875 -2.671875 C 2.082031 -2.441406 1.953125 -2.226562 1.828125 -2.03125 C 1.710938 -1.84375 1.601562 -1.660156 1.5 -1.484375 C 1.394531 -1.316406 1.296875 -1.148438 1.203125 -0.984375 C 1.109375 -0.828125 1.019531 -0.671875 0.9375 -0.515625 L 2.265625 -0.515625 L 2.265625 0 L 0.234375 0 L 0.234375 -0.359375 C 0.304688 -0.492188 0.382812 -0.640625 0.46875 -0.796875 C 0.550781 -0.960938 0.644531 -1.132812 0.75 -1.3125 C 0.851562 -1.488281 0.960938 -1.679688 1.078125 -1.890625 C 1.203125 -2.109375 1.335938 -2.335938 1.484375 -2.578125 L 0.296875 -2.578125 L 0.296875 -3.09375 L 2.21875 -3.09375 Z M 2.21875 -2.671875 "
           id="path1584" />
      </symbol>
    </g>
  </defs>
  <g
     id="surface1">
    <path
       style=" stroke:none;fill-rule:nonzero;fill:rgb(100%,85.490196%,36.862745%);fill-opacity:1;"
       d="M 15.75 9 C 15.75 12.210938 12.726562 14.8125 9 14.8125 C 5.273438 14.8125 2.25 12.210938 2.25 9 C 2.25 5.789062 5.273438 3.1875 9 3.1875 C 12.726562 3.1875 15.75 5.789062 15.75 9 Z M 15.75 9 "
       id="path1587" />
    <path
       style=" stroke:none;fill-rule:nonzero;fill:rgb(39.607843%,39.607843%,39.607843%);fill-opacity:1;"
       d="M 6.75 10.96875 C 6.230469 10.96875 5.8125 10.550781 5.8125 10.03125 C 5.8125 9.9375 5.828125 9.84375 5.855469 9.753906 C 5.980469 10.144531 6.339844 10.40625 6.75 10.40625 C 7.160156 10.40625 7.519531 10.140625 7.644531 9.75 C 7.671875 9.839844 7.6875 9.9375 7.6875 10.03125 C 7.6875 10.550781 7.269531 10.96875 6.75 10.96875 Z M 6.75 10.96875 "
       id="path1589" />
    <path
       style=" stroke:none;fill-rule:nonzero;fill:rgb(39.607843%,39.607843%,39.607843%);fill-opacity:1;"
       d="M 11.25 10.96875 C 10.730469 10.96875 10.3125 10.550781 10.3125 10.03125 C 10.3125 9.9375 10.328125 9.84375 10.355469 9.753906 C 10.480469 10.144531 10.839844 10.40625 11.25 10.40625 C 11.660156 10.40625 12.019531 10.140625 12.144531 9.75 C 12.171875 9.839844 12.1875 9.9375 12.1875 10.03125 C 12.1875 10.550781 11.769531 10.96875 11.25 10.96875 Z M 11.25 10.96875 "
       id="path1591" />
    <g
       style="fill:rgb(21.176471%,21.176471%,21.176471%);fill-opacity:1;"
       id="g1593">
      <use
         xlink:href="#glyph0-1"
         x="9.53125"
         y="8.024658"
         id="use1595" />
    </g>
    <g
       style="fill:rgb(21.176471%,21.176471%,21.176471%);fill-opacity:1;"
       id="g1597">
      <use
         xlink:href="#glyph1-1"
         x="11.726562"
         y="7.772827"
         id="use1599" />
    </g>
  </g>
</svg>

<svg xmlns="http://www.w3.org/2000/svg" width="22" height="22" viewBox="0 0 18 18">
 <g>
  <path d="m 15.75 9 c 0 3.211 -3.02 5.813 -6.75 5.813 c -3.727 0 -6.75 -2.602 -6.75 -5.813 c 0 -3.211 3.02 -5.813 6.75 -5.813 c 3.727 0 6.75 2.602 6.75 5.813 m 0 0" style="fill:#ffd95d;fill-opacity:1;stroke:none;fill-rule:nonzero"/>
  <path d="m 6.75 10.969 c -0.52 0 -0.938 -0.418 -0.938 -0.938 c 0 -0.094 0.016 -0.188 0.043 -0.277 c 0.125 0.391 0.484 0.652 0.895 0.652 c 0.41 0 0.77 -0.266 0.895 -0.656 c 0.027 0.09 0.043 0.188 0.043 0.281 c 0 0.52 -0.418 0.938 -0.938 0.938 m 0 0" style="fill:#646464;fill-opacity:1;stroke:none;fill-rule:nonzero"/>
  <path d="m 11.25 10.969 c -0.52 0 -0.938 -0.418 -0.938 -0.938 c 0 -0.094 0.016 -0.188 0.043 -0.277 c 0.125 0.391 0.484 0.652 0.895 0.652 c 0.41 0 0.77 -0.266 0.895 -0.656 c 0.027 0.09 0.043 0.188 0.043 0.281 c 0 0.52 -0.418 0.938 -0.938 0.938 m 0 0" style="fill:#646464;fill-opacity:1;stroke:none;fill-rule:nonzero"/>
 </g>
</svg>
